X:1
T:F# minor Daniel Belknap, 1806
T:Isaac Watts, 1719 (Psalm 39, Part 2)  86. 86. (C. M.)
T:Penobscot
T:Transcribed from The Village Compilation, 1806.
%%score [ 1 2 3 4 ]
L:1/8
M:4/4
K:A
V:1 treble nm="Tr." snm="Tr."
V:2 treble nm="C." snm="C."
V:3 treble-8 nm="T." snm="T."
V:4 bass nm="B." snm="B."
V:1
 A8 | c2 cA B2 c2 | c2 fc e2 c2 | B2 d2 c2 ^e2 | f6 z2 | z8 | z4 z2 d2 | c2 c2 c2 B2 | %8
w: ||||||I|would sur- vey life's|
 e2 e2 e2 d2 | c2 f2 e>d c>B | A6 AB | c2 f2 c2 c2 | c8 |] %13
w: nar- row space, And|learn how frail * I *|am, And *|learn how frail I|am.|
V:2
 F8 | E2 FA G2 G2 | A2 G2 A2 AF | G2 G2 F2 G2 | A6 z2 | z8 | z8 | z8 | z4 z2 G2 | A2 A2 A2 G2 | %10
w: 1.~Teach|me the * mea- sure|of my days, Thou *|ma- ker of my|frame:||||I|would sur- vey life's|
 F2 G2 A2 cB | A2 F2 ^E2 G2 | F8 |] %13
w: nar- row space, And *|learn how frail I|am.|
V:3
 c8 | c2 A2 e2 ef | e>d cB A2 f2 | e2 ec A2 B2 | c6 z2 | z4 z2 d2 | c2 c2 c2 f2 | ^e2 e2 e2 f2 | %8
w: |||||I|would sur- vey life's|nar- row space, And|
 c2 A2 B2 f2 | (e>d c>B c4-) | c6 f2 | e2 d2 c2 ^e2 | f8 |] %13
w: learn how frail I|am,~ _ _ _ _|_ And|learn how frail I|am.|
V:4
"^__________________________________________\nEdited by B. C. Johnston, 2015\n   1. Measure 6, \nTenor\n: note changed from E to D.\n   2. Measure 7, \nTreble\n: note changed from E to D.\n   3. Measure 8, Treble: last note changed from A to B." F,8 | %1
w: |
 A,2 F,2 E,2 C,2 | A,2 B,2 C2 A,2 | E,2 C,2 A,2 G,2 | F,6 F,2 | C,2 C,2 C,2 F,2 | A,2 A,2 A,2 F,2 | %7
w: |||* I|would sur- vey life's|nar- row space, and|
 C6 B,2 | A,2 A,2 (E,4 | A,3 G, F,4 | F,6) F,2 | A,2 B,2 C2 C,2 | F,8 |] %13
w: learn how|frail I am,~|_ _ _|* And|learn how frail I|am.|

